assets/images/arrow-white.svg

<svg width="11" height="11" viewBox="0 0 11 11" fill="none" xmlns="http://www.w3.org/2000/svg">
<path d="M10.7226 1.25739C10.7226 0.843181 10.3868 0.507395 9.97259 0.507395L3.22259 0.507394C2.80837 0.507394 2.47259 0.843181 2.47259 1.25739C2.47259 1.67161 2.80837 2.00739 3.22259 2.00739H9.22259V8.00739C9.22259 8.42161 9.55837 8.75739 9.97259 8.75739C10.3868 8.75739 10.7226 8.42161 10.7226 8.00739L10.7226 1.25739ZM2.01763 10.273L10.5029 1.78772L9.44226 0.727064L0.956975 9.21235L2.01763 10.273Z" fill="white"/>
</svg>

<svg width="11" height="11" fill="none" xmlns="http://www.w3.org/2000/svg"><path d="M10.723 1.257a.75.75 0 0 0-.75-.75h-6.75a.75.75 0 1 0 0 1.5h6v6a.75.75 0 1 0 1.5 0v-6.75Zm-8.705 9.016 8.485-8.485-1.06-1.06L.956 9.211l1.06 1.061Z" fill="#fff"/></svg>
